X: 7988
T: Connacht Drifters, The
R: jig
M: 6/8
K: Fmajor
ded cAG|DEG AGE|C2G, CDE|GAc dge|
d3 cAG|DEG AGE|CDE G2E|EDD D3:|
g2e deg|a3 age|c3 cde|1 ged cAA|
g2e deg|a3 age|cde g2e|edd d3:|
[2 ged cfe|d3 cAG|DEG AGE|CDE G2E|EDD D3||

